X:306
T:Reel 306
M:4/4
K:Amaj
L:1/8
cd|e>A (3AGf EDCD|EAAG AcBA|G>E (3EGA GBAc|cABG AGAF|E>A (3AGA GAGB|ECA,C Edcd|ceBG AFED|CDB,C A,2|cd|ecAc fdBd|cABG AGFA|EAAd cAeA|BABc dfed|c2Bc dcBd|cABG AGFD|ECEG FABdcABG A2|
